svg/fluentui-system-icons/ic_fluent_contact_card_ribbon_20_regular.svg

<svg width="20" height="20" viewBox="0 0 20 20" fill="none" xmlns="http://www.w3.org/2000/svg">
<path d="M8 8.5C8 9.32843 7.32843 10 6.5 10C5.67157 10 5 9.32843 5 8.5C5 7.67157 5.67157 7 6.5 7C7.32843 7 8 7.67157 8 8.5ZM4 11.6988C4 11.1748 4.42479 10.75 4.94879 10.75H8.05121C8.57521 10.75 9 11.1748 9 11.6988C9 12.546 8.42338 13.2845 7.60144 13.49L7.54243 13.5048C6.85801 13.6759 6.14199 13.6759 5.45757 13.5048L5.39856 13.49C4.57661 13.2845 4 12.546 4 11.6988ZM11.5 8C11.2239 8 11 8.22386 11 8.5C11 8.77614 11.2239 9 11.5 9H14.5C14.7761 9 15 8.77614 15 8.5C15 8.22386 14.7761 8 14.5 8H11.5ZM11.5 11C11.2239 11 11 11.2239 11 11.5C11 11.7761 11.2239 12 11.5 12H12.126C12.2173 11.6452 12.3561 11.3095 12.5351 11H11.5ZM3.75 15H12.5351C12.6687 15.2309 12.8246 15.4471 13 15.6458V16H3.75C2.7835 16 2 15.2165 2 14.25V5.75C2 4.7835 2.7835 4 3.75 4H16.25C17.2165 4 18 4.7835 18 5.75V9.53513C17.6905 9.35609 17.3548 9.21733 17 9.12602V5.75C17 5.33579 16.6642 5 16.25 5H3.75C3.33579 5 3 5.33579 3 5.75V14.25C3 14.6642 3.33579 15 3.75 15ZM19 13C19 14.6569 17.6569 16 16 16C14.3431 16 13 14.6569 13 13C13 11.3431 14.3431 10 16 10C17.6569 10 19 11.3431 19 13ZM18 16.4649C17.4117 16.8052 16.7286 17 16 17C15.2714 17 14.5883 16.8052 14 16.4649V18.7503C14 18.9443 14.2112 19.0643 14.3778 18.9652L16 18L17.6222 18.9652C17.7888 19.0643 18 18.9443 18 18.7503V16.4649Z" fill="#212121"/>
</svg>

<svg xmlns="http://www.w3.org/2000/svg" width="20" height="20"><path d="M8 8.5a1.5 1.5 0 1 1-3 0 1.5 1.5 0 0 1 3 0Zm-4 3.199a.95.95 0 0 1 .949-.949H8.05a.95.95 0 0 1 .949.949c0 .847-.577 1.585-1.399 1.791l-.059.015c-.684.17-1.4.17-2.084 0l-.06-.015A1.846 1.846 0 0 1 4 11.699ZM11.5 8a.5.5 0 0 0 0 1h3a.5.5 0 0 0 0-1h-3Zm0 3a.5.5 0 0 0 0 1h.626c.091-.355.23-.69.41-1H11.5Zm-7.75 4h8.785c.134.23.29.447.465.646V16H3.75A1.75 1.75 0 0 1 2 14.25v-8.5C2 4.784 2.784 4 3.75 4h12.5c.966 0 1.75.784 1.75 1.75v3.785a3.975 3.975 0 0 0-1-.409V5.75a.75.75 0 0 0-.75-.75H3.75a.75.75 0 0 0-.75.75v8.5c0 .414.336.75.75.75ZM19 13a3 3 0 1 1-6 0 3 3 0 0 1 6 0Zm-1 3.465A3.982 3.982 0 0 1 16 17a3.982 3.982 0 0 1-2-.535v2.285a.25.25 0 0 0 .378.215L16 18l1.622.965A.25.25 0 0 0 18 18.75v-2.285Z"/></svg>
